X: 5944
T: Caminante
R: reel
M: 4/4
K: Gmajor
|:E2EF G2GA|B2eB cBAG|D2DE F2FG|A2BA BAGF|
E2EF G2GA|B2eB cBAG|DEFG ABAG|1 FEED E4:|2 FEED E3f||
gebe gebe|gebe gfeg|fdad fdad|fdad gfef|
gebe gebe|gebe gfeg|defg abag|feed e4||

